assets/img/braze_icons/camera-lens.svg

<svg fill="none" height="24" viewBox="0 0 24 24" width="24" xmlns="http://www.w3.org/2000/svg"><path clip-rule="evenodd" d="m19.7782 4.22183c4.2957 4.29577 4.2957 11.26057 0 15.55637-4.2958 4.2957-11.26063 4.2957-15.55637 0-4.295771-4.2958-4.2957739-11.26063 0-15.55637 4.29577-4.2957712 11.26057-4.2957741 15.55637 0zm-1.4143 1.41421c-1.4182-1.41821-3.1919-2.26416-5.0343-2.53786 1.8607 1.75033 3.0173 4.16224 3.1835 6.74641.2282.47781.3761.98431.4439 1.49941 1.1661-1.52381 1.7866-3.44542 1.6719-5.43175-.086-.09347-.1743-.18557-.265-.27621zm-4.4531 1.74209c-.7365-1.77155-2.0904-3.26976-3.8679-4.16392-1.61502.35816-3.15046 1.16544-4.40686 2.42183-.24435.24435-.47171.49925-.68208.76324 2.44727-.73745 5.11594-.53336 7.43844.61605.518.04053 1.0309.16146 1.5184.3628zm-4.95763.65672c-1.9034-.24784-3.8786.17632-5.54207 1.26997-.61221 1.95678-.54064 4.08128.21472 5.99878.58466-2.4879 2.09554-4.6969 4.2512-6.13378.17085-.24829.36667-.48458.58744-.70536.15561-.1556.31892-.2988.48871-.42961zm-1.91021 4.62115c-1.16612 1.5237-1.78674 3.4452-1.67211 5.4314.08605.0936.17445.1858.26519.2765 1.41814 1.4182 3.19181 2.2641 5.03406 2.5379-1.86068-1.7505-3.01728-4.1625-3.18334-6.7467-.2281-.4777-.37603-.9842-.4438-1.4991zm3.04604 3.9658c.7365 1.7716 2.0904 3.2698 3.8679 4.164 1.6151-.3581 3.1506-1.1654 4.407-2.4219.2445-.2444.4719-.4993.6823-.7634-2.4472.7375-5.1159.5335-7.4383-.6158-.5182-.0405-1.0313-.1615-1.5189-.3629zm4.958-.6568c.1697-.1307.333-.2739.4885-.4295.2208-.2207.4165-.4569.5873-.7051 2.1558-1.437 3.6667-3.6462 4.2513-6.13434.7554 1.91754.827 4.04204.2149 5.99884-1.6635 1.0937-3.6386 1.5179-5.542 1.2701z" fill="#801ed7" fill-rule="evenodd"/></svg>

<svg width="24" height="24" viewBox="0 0 24 24" fill="none" xmlns="http://www.w3.org/2000/svg">
<path fill-rule="evenodd" clip-rule="evenodd" d="M19.7782 4.22183C24.0739 8.5176 24.0739 15.4824 19.7782 19.7782C15.4824 24.0739 8.51757 24.0739 4.22183 19.7782C-0.073941 15.4824 -0.0739439 8.51757 4.22183 4.22183C8.5176 -0.0739412 15.4824 -0.0739441 19.7782 4.22183ZM18.3639 5.63604C16.9457 4.21783 15.172 3.37188 13.3296 3.09818C15.1903 4.84851 16.3469 7.26042 16.5131 9.84459C16.7413 10.3224 16.8892 10.8289 16.957 11.344C18.1231 9.82019 18.7436 7.89858 18.6289 5.91225C18.5429 5.81878 18.4546 5.72668 18.3639 5.63604ZM13.9108 7.37813C13.1743 5.60658 11.8204 4.10837 10.0429 3.21421C8.42788 3.57237 6.89244 4.37965 5.63604 5.63604C5.39169 5.88039 5.16433 6.13529 4.95396 6.39928C7.40123 5.66183 10.0699 5.86592 12.3924 7.01533C12.9104 7.05586 13.4233 7.17679 13.9108 7.37813ZM8.95317 8.03485C7.04977 7.78701 5.07457 8.21117 3.4111 9.30482C2.79889 11.2616 2.87046 13.3861 3.62582 15.3036C4.21048 12.8157 5.72136 10.6067 7.87702 9.16982C8.04787 8.92153 8.24369 8.68524 8.46446 8.46446C8.62007 8.30886 8.78338 8.16566 8.95317 8.03485ZM7.04296 12.656C5.87684 14.1797 5.25622 16.1012 5.37085 18.0874C5.4569 18.181 5.5453 18.2732 5.63604 18.3639C7.05418 19.7821 8.82785 20.628 10.6701 20.9018C8.80942 19.1513 7.65282 16.7393 7.48676 14.1551C7.25866 13.6774 7.11073 13.1709 7.04296 12.656ZM10.089 16.6218C10.8255 18.3934 12.1794 19.8916 13.9569 20.7858C15.572 20.4277 17.1075 19.6204 18.3639 18.3639C18.6084 18.1195 18.8358 17.8646 19.0462 17.6005C16.599 18.338 13.9303 18.134 11.6079 16.9847C11.0897 16.9442 10.5766 16.8232 10.089 16.6218ZM15.047 15.965C15.2167 15.8343 15.38 15.6911 15.5355 15.5355C15.7563 15.3148 15.952 15.0786 16.1228 14.8304C18.2786 13.3934 19.7895 11.1842 20.3741 8.69606C21.1295 10.6136 21.2011 12.7381 20.589 14.6949C18.9255 15.7886 16.9504 16.2128 15.047 15.965Z" fill="#801ED7"/>
</svg>
